X: 1
T: Josephine's
M: 3/4
L: 1/8
R: waltz
K: Gmaj
&quot;G&quot;DGA|B d c|BAG|D2 E|&quot;C&quot; C2 C/2C/2|EGF|E3|&quot;D&quot;D3|
&quot;G&quot;DGA|B d c|BAG|D2 E|&quot;C&quot;C2 C/2C/2| EFG|(&quot;D&quot;A3|A)Bc|
|:&quot;G&quot;dBd|g2f|&quot;C&quot;e3|&quot;G&quot;d3|&quot;C&quot;ced|cBA|&quot;G&quot;B>c B|&quot;D&quot;ABc:|
|&quot;Em&quot;BAG|&quot;D&quot;F2G|&quot;C&quot;G3|CDC|&quot;G&quot;B,DG|&quot;D&quot;FEF|(&quot;G&quot;G3|G)|
